X: 1
T: Cregg's Pipes
C: Trad.
M: 4/4
R: Reel
L: 1/8
S: Graham Mackenzie
K: G
|:B3 B BAGA|B2 GB AGEG|1 B3 B BAGB|A/B/c BG AGEG:|2 Bded BddB|A/B/c BG AGEG||
|:DG ~G2 DGBG|DGBG AGEG|DG ~G2 DGBc|1 dBAc BGGE:|2 dBAc BGGB ||
|:d2 Bd efge|d2 BG AGEG|d2 Bd eg ~g2|1 a2 bg baeg:|2 a2 bg baed |]